T: Mise Eire
M: 4/4
L: 1/8
K: Dmaj
AF/A/|D3 E/D/  F/A/e3 |{fe}d/e/f3 ed3|BA3 FE3| DE F3E D2|
D2 de/f/ g3f|e>d (3f>ed cA B/A/F/A/|e2 de fe d2|de/f/ g3f ed| (3f>ed c<A|
B/A/F/A/ e2 de f2|fe d2 BA AF/A/ D2|D2 ED FA e2|
de f3e d2|dB A2 F2 E2|DE F2 E2 D2| D4 D4||
